X:1
T:Title
%%score { ( 1 3 4 ) | ( 2 5 ) }
L:1/8
Q:1/4=100
M:4/4
K:G
V:1 treble nm="Grand Piano"
V:3 treble 
V:4 treble 
V:2 bass 
V:5 bass 
V:1
 G2 D>D G2 D2 | B3 A G4 | G2 E>E G2 E>E | [^DB]6 z2 | [Ec]2 [FA]>[FA] [Fc]2 [DFA]2 | %5
w: D.~B.~Towner * * * *|||||
 [DGd]4 [DG]2 [CEA]2 | B2 B2 A2 A2 | [B,G]6 z2 | [FA]4 [FA]4 | [Ac]6 z2 | B2 B>B ^c2 A>c | %11
w: ||||||
 [Fd]6 z2 | [Fc]2 [FA]>[FA] [Fc]2 [DFA]2 | [DGd]4 [DG]2 [CEA]2 | B2 B2 A2 A2 | [B,G]6 z2 |] %16
w: |||||
V:2
 G,2 D,>D, G,2 D,2 | B,3 A, G,4 | [E,B,E]2 [E,G,B,]>[E,G,B,] [E,B,E]2 [E,G,]>[E,G,] | [B,,F,]6 z2 | %4
 [A,,F,]2 [D,C]>[D,C] [D,A,]2 C,2 | B,,4 B,,2 C,2 | [D,G,D]2 [D,G,D]2 [D,F,C]2 [D,F,C]2 | %7
 [G,,G,]6 z2 | [D,D]2 D,>D, D,2 z G | D,2 F,>E, D,2 z2 | [G,DG]2 [G,DG]>[G,DG] [A,G]2 [A,G]>[A,G] | %11
 [D,A,]6 z2 | [D,A,]2 [D,C]>[D,C] [D,A,]2 C,2 | B,,4 B,,2 C,2 | %14
 [D,G,D]2 [D,G,D]2 [D,F,C]2 [D,F,C]2 | [G,,G,]6 z2 |] %16
V:3
 x8 | x8 | x8 | x8 | x8 | x8 | x8 | x8 | z2 D>D D2 z B | D2 D>D D2 z2 | x8 | x8 | x8 | x8 | x8 | %15
 x8 |] %16
V:4
 x8 | x8 | x8 | x8 | x8 | x8 | x8 | x8 | z4 z2 D2 | x8 | x8 | x8 | x8 | x8 | x8 | x8 |] %16
V:5
 x8 | x8 | x8 | x8 | x8 | x8 | x8 | x8 | z4 z2 D,2 | x8 | x8 | x8 | x8 | x8 | x8 | x8 |] %16

